upholstery/frontseat_back.blend_page11.svg

<?xml version="1.0" encoding="UTF-8" standalone="no"?>
<svg
   version="1.1"
   width="300.00mm"
   height="600.00mm"
   viewBox="0 0 300.00 600.00"
   id="svg1201"
   sodipodi:docname="frontseat_back.blend_page11.svg"
   inkscape:version="1.1.1 (c3084ef, 2021-09-22)"
   xmlns:inkscape="http://www.inkscape.org/namespaces/inkscape"
   xmlns:sodipodi="http://sodipodi.sourceforge.net/DTD/sodipodi-0.dtd"
   xmlns="http://www.w3.org/2000/svg"
   xmlns:svg="http://www.w3.org/2000/svg">
  <defs
     id="defs1205" />
  <sodipodi:namedview
     id="namedview1203"
     pagecolor="#ffffff"
     bordercolor="#666666"
     borderopacity="1.0"
     inkscape:pageshadow="2"
     inkscape:pageopacity="0.0"
     inkscape:pagecheckerboard="0"
     inkscape:document-units="mm"
     showgrid="false"
     inkscape:zoom="0.34880903"
     inkscape:cx="566.21241"
     inkscape:cy="1133.8583"
     inkscape:window-width="1792"
     inkscape:window-height="975"
     inkscape:window-x="0"
     inkscape:window-y="25"
     inkscape:window-maximized="1"
     inkscape:current-layer="svg1201" />
  <style
     type="text/css"
     id="style1149">
    path {
        fill: none;
        stroke-linecap: butt;
        stroke-linejoin: bevel;
        stroke-dasharray: none;
    }
    path.outer {
        stroke: #000000;
        stroke-dasharray: none;
        stroke-dashoffset: 0;
        stroke-width: 0.3;
        stroke-opacity: 1.0;
    }
    path.convex {
        stroke: #000000;
        stroke-dasharray: 0.50,1.00;
        stroke-dashoffset:0;
        stroke-width:0.2;
        stroke-opacity: 1.0
    }
    path.concave {
        stroke: #000000;
        stroke-dasharray: 1.00,0.50,0.20,0.50;
        stroke-dashoffset: 0;
        stroke-width: 0.2;
        stroke-opacity: 1.0
    }
    path.freestyle {
        stroke: #000000;
        stroke-dasharray: none;
        stroke-dashoffset: 0;
        stroke-width: 0.2;
        stroke-opacity: 1.0
    }
    path.outer_background {
        stroke: #ffffff;
        stroke-opacity: 1.0;
        stroke-width: 0.5
    }
    path.inner_background {
        stroke: #ffffff;
        stroke-opacity: 1.0;
        stroke-width: 0.2
    }
    path.sticker {
        fill: #e5e5e5;
        stroke: none;
        fill-opacity: 1.0;
    }
    path.arrow {
        fill: #000000;
    }
    text {
        font-style: normal;
        fill: #000000;
        fill-opacity: 1.0;
        stroke: none;
    }
    text, tspan {
        text-anchor:middle;
    }
    </style>
  <path
     class="sticker"
     d="m 103.74772,392.20094 9.00252,4.35656 -31.840708,68.52112 -9.134888,-4.07163 z m -36.86769,66.53162 -9.002507,-4.35655 31.840682,-68.52112 9.134903,4.07163 z m -45.3071,110.30814 -1.175679,2.42941 -4.817695,-2.23871 1.098782,-2.46516 z m 114.14786,-245.64578 9.00251,4.35656 -31.84067,68.5211 -9.13491,-4.07164 z m -36.867682,66.5316 -9.002506,-4.35657 31.840678,-68.52111 9.13493,4.07163 z m 82.174542,-176.83986 1.17568,-2.42943 4.81772,2.23869 -1.09878,2.46519 z"
     id="path1155" />
  <path
     class="outer"
     d="m 112.75024,396.5575 -31.840708,68.52112 -9.134888,-4.07163 -50.201714,108.03371 -1.175679,2.42941 -4.817695,-2.23871 1.098782,-2.46516 50.201692,-108.03368 -9.002507,-4.35655 31.840682,-68.52112 9.134903,4.07163 -9.002506,-4.35657 31.840678,-68.52111 9.13493,4.07163 50.20144,-108.03381 1.17568,-2.42943 4.81772,2.23869 -1.09878,2.46519 -50.20148,108.03381 9.00251,4.35656 -31.84067,68.5211 -9.13491,-4.07164 z"
     id="path1157" />
  <text
     transform="rotate(114.92357)"
     style="font-size:9px"
     id="text1161"
     x="349.8913"
     y="-261.16269"><tspan
       id="tspan1159">7:3</tspan></text>
  <text
     transform="rotate(-65.076432)"
     style="font-size:9px"
     id="text1165"
     x="-349.89124"
     y="252.16556"><tspan
       id="tspan1163">13:3</tspan></text>
  <g
     id="g1173">
    <path
       transform="matrix(-9.068695,-4.214117,4.214117,-9.068695,19.125638,567.90347)"
       class="arrow"
       d="M 0,0 1,1 0,0.25 -1,1 Z"
       id="path1167" />
    <text
       transform="translate(22.918343,563.74165)"
       style="font-size:10px"
       id="text1171"><tspan
         id="tspan1169">1</tspan></text>
  </g>
  <text
     transform="rotate(-155.07623)"
     style="font-size:2.43px"
     id="text1177"
     x="-256.66586"
     y="-507.44025"><tspan
       id="tspan1175">18:1</tspan></text>
  <text
     transform="rotate(114.92357)"
     style="font-size:9px"
     id="text1181"
     x="274.01938"
     y="-261.16269"><tspan
       id="tspan1179">7:7</tspan></text>
  <text
     transform="rotate(-65.076432)"
     style="font-size:9px"
     id="text1185"
     x="-274.01932"
     y="252.16551"><tspan
       id="tspan1183">13:6.</tspan></text>
  <g
     id="g1193">
    <path
       transform="matrix(9.068723,4.214055,-4.214055,9.068723,183.47496,214.22392)"
       class="arrow"
       d="M 0,0 1,1 0,0.25 -1,1 Z"
       id="path1187" />
    <text
       transform="translate(179.68232,226.38577)"
       style="font-size:10px"
       id="text1191"><tspan
         id="tspan1189">2</tspan></text>
  </g>
  <text
     transform="rotate(24.923336)"
     style="font-size:2.43px"
     id="text1197"
     x="256.66345"
     y="116.47069"><tspan
       id="tspan1195">19:2</tspan></text>
  <text
     style="font-size:10px"
     id="text1153"
     x="105.85147"
     y="385.74289"><tspan
       id="tspan1151">[17]</tspan></text>
</svg>

<?xml version='1.0' encoding='UTF-8' standalone='no'?>
    <svg xmlns='http://www.w3.org/2000/svg' xmlns:xlink='http://www.w3.org/1999/xlink' version='1.1'
    width='300.00mm' height='600.00mm' viewBox='0 0 300.00 600.00'>
<style type="text/css">
    path {
        fill: none;
        stroke-linecap: butt;
        stroke-linejoin: bevel;
        stroke-dasharray: none;
    }
    path.outer {
        stroke: #000000;
        stroke-dasharray: none;
        stroke-dashoffset: 0;
        stroke-width: 0.3;
        stroke-opacity: 1.0;
    }
    path.convex {
        stroke: #000000;
        stroke-dasharray: 0.50,1.00;
        stroke-dashoffset:0;
        stroke-width:0.2;
        stroke-opacity: 1.0
    }
    path.concave {
        stroke: #000000;
        stroke-dasharray: 1.00,0.50,0.20,0.50;
        stroke-dashoffset: 0;
        stroke-width: 0.2;
        stroke-opacity: 1.0
    }
    path.freestyle {
        stroke: #000000;
        stroke-dasharray: none;
        stroke-dashoffset: 0;
        stroke-width: 0.2;
        stroke-opacity: 1.0
    }
    path.outer_background {
        stroke: #ffffff;
        stroke-opacity: 1.0;
        stroke-width: 0.5
    }
    path.inner_background {
        stroke: #ffffff;
        stroke-opacity: 1.0;
        stroke-width: 0.2
    }
    path.sticker {
        fill: #e5e5e5;
        stroke: none;
        fill-opacity: 1.0;
    }
    path.arrow {
        fill: #000000;
    }
    text {
        font-style: normal;
        fill: #000000;
        fill-opacity: 1.0;
        stroke: none;
    }
    text, tspan {
        text-anchor:middle;
    }
    </style>
<g>
<text transform='translate(101.30027402192354 202.93632615357637)' style='font-size:10.00'><tspan>[17] I 17</tspan></text>
<path class='sticker' d=' M 103.747723 392.200942 L 112.750244 396.557505 L 80.909532 465.078617 L 71.774644 461.006994 Z
M 66.880030 458.732556 L 57.877523 454.376007 L 89.718205 385.854895 L 98.853108 389.926518 Z
M 21.572930 569.040696 L 20.397251 571.470107 L 15.579556 569.231401 L 16.678338 566.766242 Z
M 135.720794 323.394920 L 144.723301 327.751483 L 112.882626 396.272580 L 103.747723 392.200942 Z
M 98.853108 389.926518 L 89.850602 385.569955 L 121.691284 317.048843 L 130.826210 321.120466 Z
M 181.027655 213.086660 L 182.203327 210.657234 L 187.021052 212.895925 L 185.922270 215.361114 Z '/>
<path class='outer' d=' M 112.750244 396.557505 L 80.909532 465.078617 L 71.774644 461.006994 L 21.572930 569.040696 L 20.397251 571.470107 L 15.579556 569.231401 L 16.678338 566.766242 L 66.880030 458.732556 L 57.877523 454.376007 L 89.718205 385.854895 L 98.853108 389.926518 L 89.850602 385.569955 L 121.691284 317.048843 L 130.826210 321.120466 L 181.027655 213.086660 L 182.203327 210.657234 L 187.021052 212.895925 L 185.922270 215.361114 L 135.720794 323.394920 L 144.723301 327.751483 L 112.882626 396.272580 L 103.747723 392.200942 Z '/>
<text transform='matrix(-0.421409 0.906871 -0.906871 -0.421409 89.393538 427.362497)' style='font-size:9.00'><tspan>7:3</tspan></text>
<text transform='matrix(0.421409 -0.906871 0.906871 0.421409 81.234199 423.571016)' style='font-size:9.00'><tspan>13:3</tspan></text>
<g><path transform='matrix(-9.068695 -4.214117 4.214117 -9.068695 19.125638 567.903469)' class='arrow' d='M 0 0 L 1 1 L 0 0.25 L -1 1 Z'/><text transform='translate(22.918343 563.741646)' style='font-size:10.00'><tspan>1</tspan></text></g>
<text transform='matrix(-0.906869 -0.421412 0.421412 -0.906869 18.920933 568.343992)' style='font-size:2.43'><tspan>18:1</tspan></text>
<text transform='matrix(-0.421409 0.906871 -0.906871 -0.421409 121.366632 358.556475)' style='font-size:9.00'><tspan>7:7</tspan></text>
<text transform='matrix(0.421409 -0.906871 0.906871 0.421409 113.207293 354.764964)' style='font-size:9.00'><tspan>13:6.</tspan></text>
<g><path transform='matrix(9.068723 4.214055 -4.214055 9.068723 183.474963 214.223917)' class='arrow' d='M 0 0 L 1 1 L 0 0.25 L -1 1 Z'/><text transform='translate(179.682319 226.385768)' style='font-size:10.00'><tspan>2</tspan></text></g>
<text transform='matrix(0.906872 0.421405 -0.421405 0.906872 183.679675 213.783379)' style='font-size:2.43'><tspan>19:2</tspan></text>
</g>
</svg>
